icons/System/settings-5-fill.svg

<svg viewBox="0 0 24 24" xmlns="http://www.w3.org/2000/svg"><path d="M2.13225 13.6308C1.95018 12.5349 1.95619 11.434 2.13313 10.3695C3.23434 10.3963 4.22471 9.86798 4.60963 8.93871C4.99454 8.00944 4.66782 6.93557 3.87024 6.17581C4.49783 5.29798 5.27202 4.51528 6.17568 3.86911C6.93548 4.66716 8.00968 4.99416 8.9392 4.60914C9.86872 4.22412 10.3971 3.23332 10.37 2.13176C11.4659 1.94969 12.5668 1.9557 13.6313 2.13265C13.6045 3.23385 14.1329 4.22422 15.0621 4.60914C15.9914 4.99406 17.0653 4.66733 17.825 3.86975C18.7029 4.49734 19.4856 5.27153 20.1317 6.1752C19.3337 6.93499 19.0067 8.00919 19.3917 8.93871C19.7767 9.86823 20.7675 10.3966 21.8691 10.3695C22.0511 11.4654 22.0451 12.5663 21.8682 13.6308C20.767 13.6041 19.7766 14.1324 19.3917 15.0616C19.0068 15.9909 19.3335 17.0648 20.1311 17.8245C19.5035 18.7024 18.7293 19.4851 17.8256 20.1312C17.0658 19.3332 15.9916 19.0062 15.0621 19.3912C14.1326 19.7762 13.6043 20.767 13.6313 21.8686C12.5354 22.0507 11.4345 22.0447 10.37 21.8677C10.3968 20.7665 9.86847 19.7761 8.9392 19.3912C8.00993 19.0063 6.93605 19.333 6.1763 20.1306C5.29847 19.503 4.51577 18.7288 3.8696 17.8252C4.66765 17.0654 4.99465 15.9912 4.60963 15.0616C4.22461 14.1321 3.23381 13.6038 2.13225 13.6308ZM12.0007 15.0002C13.6575 15.0002 15.0007 13.657 15.0007 12.0002C15.0007 10.3433 13.6575 9.00018 12.0007 9.00018C10.3438 9.00018 9.00066 10.3433 9.00066 12.0002C9.00066 13.657 10.3438 15.0002 12.0007 15.0002Z"/></svg>

<svg xmlns="http://www.w3.org/2000/svg" viewBox="0 0 24 24">
    <g>
        <path fill="none" d="M0 0h24v24H0z"/>
        <path d="M2.132 13.63a9.942 9.942 0 0 1 0-3.26c1.102.026 2.092-.502 2.477-1.431.385-.93.058-2.004-.74-2.763a9.942 9.942 0 0 1 2.306-2.307c.76.798 1.834 1.125 2.764.74.93-.385 1.457-1.376 1.43-2.477a9.942 9.942 0 0 1 3.262 0c-.027 1.102.501 2.092 1.43 2.477.93.385 2.004.058 2.763-.74a9.942 9.942 0 0 1 2.307 2.306c-.798.76-1.125 1.834-.74 2.764.385.93 1.376 1.457 2.477 1.43a9.942 9.942 0 0 1 0 3.262c-1.102-.027-2.092.501-2.477 1.43-.385.93-.058 2.004.74 2.763a9.942 9.942 0 0 1-2.306 2.307c-.76-.798-1.834-1.125-2.764-.74-.93.385-1.457 1.376-1.43 2.477a9.942 9.942 0 0 1-3.262 0c.027-1.102-.501-2.092-1.43-2.477-.93-.385-2.004-.058-2.763.74a9.942 9.942 0 0 1-2.307-2.306c.798-.76 1.125-1.834.74-2.764-.385-.93-1.376-1.457-2.477-1.43zM12 15a3 3 0 1 0 0-6 3 3 0 0 0 0 6z"/>
    </g>
</svg>
